X: 2020
T: LASSES LIKE NAE BRANDY
R: Reel.
%R: reel
B: James Kerr "Merry Melodies" v.2 p.5 #20
Z: 2016 John Chambers <jc:trillian.mit.edu>
M: C
L: 1/8
K: A
uf |\
(vef/g/ a)ue fdec | B=ggB d2(df) |\
(ef/g/ a)e fdec | Aaac e3 ::\
f |\
eAcA eAcA |
B=ggB d2(df) |\
[1 eAcA aecA | Aaac e3 :|\
[2 af=ge fdec | bBBc d3 :|
